X: 349
U:~=!turn!
M:C
L:1/8
K:A phrygian
f<f{fg}a>f {/a}g>fe<c | d<d{/g}f>d {/d}c>BA<F | f<f {fg}a>f {/a}g>fe<c | d>f e/f/g/e/ f2 fa | {ga}b>ga>f {/a}g>fd<f |
d/c/B/A/ f>A B/A/G/F/ G<A | F<FF<F B<d ~d2 | c>f e/f/g/e/ f/g/a/g/ f<a !fine!H|| A>Fc>F d/c/B/A/ c<f | A<Fc<F G>AB<d |
d>f e/f/g/e/ f2 fd | d<b c<a B<gA<f | {AB}c>BA<F {EF}G>FE<C | (3FGA (3GAB (3ABc (3Bcd | "_cres."c>f a/g/f/e/ g/f/e/d/ c/B/A/G/!D.C.!!segno! |]


